X:2481
T:Harmonio Dance
O:england
M:6/8
L:1/8
S:Armitt MS
K:G major
d|g2dB2g|e2cA2G|FGA DEF|G2Bd2d|g2dB2g|e2cA2G|FGA DEF|G2G2||B|c2aa2c|B2gg
2B|ABc def|g2ab2B|c2aa2c|B2gg2b|agf ed^c|dFG ABc|dBg ecg|dBg ecg|dcB BAG
|FAA A2d|dBg ecg|dBg ecg |dcB AGF|GBdg2:||


